assets/images/icons/good-to-know.svg

<svg width="40" height="40" viewBox="0 0 40 40" fill="none" xmlns="http://www.w3.org/2000/svg">
<g clip-path="url(#clip0_211_4022)">
<path opacity="0.1" d="M0.278944 28.9522C-0.0736318 25.9401 -0.122607 22.9843 0.310078 20.3101C0.84212 17.0218 2.23117 13.3636 3.74867 10.092C6.71454 3.69799 12.0239 1.46106 18.489 0.452582C27.5008 -0.953153 39.9215 0.452613 40 11.3589C39.5479 15.2591 36.5646 26.1018 26.4939 26.9292C23.1642 27.2028 21.9185 30.5473 20.4515 34.3758C16.5911 44.4503 1.56969 39.9794 0.278944 28.9522Z" fill="#7FB51F"/>
<g clip-path="url(#clip1_211_4022)">
<path d="M13.6187 12.4594L11.2987 10.1395C10.9783 9.81907 10.4592 9.81907 10.1387 10.1395C9.81833 10.4599 9.81833 10.979 10.1387 11.2995L12.4587 13.6194C12.7791 13.9398 13.2983 13.9398 13.6187 13.6194C13.9391 13.299 13.9391 12.7798 13.6187 12.4594Z" fill="#7FB51F"/>
<path d="M10.1562 19.1797H6.82031C6.3669 19.1797 6 19.5466 6 20C6 20.4534 6.3669 20.8203 6.82031 20.8203H10.1562C10.6097 20.8203 10.9766 20.4534 10.9766 20C10.9766 19.5466 10.6097 19.1797 10.1562 19.1797Z" fill="#7FB51F"/>
<path d="M33.1797 19.1797H29.8438C29.3903 19.1797 29.0234 19.5466 29.0234 20C29.0234 20.4534 29.3903 20.8203 29.8438 20.8203H33.1797C33.6331 20.8203 34 20.4534 34 20C34 19.5466 33.6331 19.1797 33.1797 19.1797Z" fill="#7FB51F"/>
<path d="M29.8609 10.1395C29.5405 9.81907 29.0213 9.81907 28.7009 10.1395L26.3809 12.4594C26.0605 12.7798 26.0605 13.299 26.3809 13.6194C26.7013 13.9398 27.2205 13.9398 27.5409 13.6194L29.8609 11.2995C30.1813 10.979 30.1813 10.4599 29.8609 10.1395Z" fill="#7FB51F"/>
<path d="M20 6C19.5466 6 19.1797 6.3669 19.1797 6.82031V10.1562C19.1797 10.6097 19.5466 10.9766 20 10.9766C20.4534 10.9766 20.8203 10.6097 20.8203 10.1562V6.82031C20.8203 6.3669 20.4534 6 20 6Z" fill="#7FB51F"/>
<path d="M24.5937 14.2085C22.8055 12.7975 20.4922 12.289 18.2281 12.8304C15.6031 13.4374 13.4868 15.521 12.8469 18.1296C12.207 20.7546 12.9453 23.4124 14.832 25.2663C15.5047 25.939 15.8984 26.9944 15.8984 28.0773V28.2577C15.8984 28.7171 16.2593 29.078 16.7187 29.078H23.2812C23.7407 29.078 24.1015 28.7171 24.1015 28.2577V28.0773C24.1015 27.0108 24.5117 25.9225 25.2336 25.2171C26.6118 23.8225 27.3828 21.9687 27.3828 19.9999C27.3828 17.7359 26.3656 15.6194 24.5937 14.2085ZM20 17.539C18.7624 17.539 17.8615 18.3599 17.6256 19.3102C17.5182 19.7424 17.0833 20.0182 16.6314 19.9094C16.1924 19.8005 15.924 19.355 16.033 18.9161C16.4394 17.2754 17.9804 15.8984 20 15.8984C20.4534 15.8984 20.8203 16.2653 20.8203 16.7187C20.8203 17.1721 20.4534 17.539 20 17.539Z" fill="#7FB51F"/>
<path d="M16.7188 30.7188V31.5391C16.7188 32.8961 17.8227 34 19.1797 34H20.8203C22.1773 34 23.2812 32.8961 23.2812 31.5391V30.7188H16.7188Z" fill="#7FB51F"/>
</g>
</g>
<defs>
<clipPath id="clip0_211_4022">
<rect width="40" height="40" fill="white"/>
</clipPath>
<clipPath id="clip1_211_4022">
<rect width="28" height="28" fill="white" transform="translate(6 6)"/>
</clipPath>
</defs>
</svg>

<svg xmlns="http://www.w3.org/2000/svg" width="40" height="40" fill="none"><g fill="#7FB51F" clip-path="url(#a)"><path d="M.279 28.952c-.353-3.012-.402-5.968.031-8.642.532-3.288 1.921-6.946 3.439-10.218 2.966-6.394 8.275-8.63 14.74-9.64C27.501-.952 39.922.453 40 11.36c-.452 3.9-3.435 14.743-13.506 15.57-3.33.274-4.575 3.618-6.042 7.447C16.592 44.45 1.57 39.979.279 28.952" opacity=".1"/><g clip-path="url(#b)"><path d="m13.619 12.46-2.32-2.32a.82.82 0 1 0-1.16 1.16l2.32 2.32a.82.82 0 1 0 1.16-1.16m-3.463 6.72H6.82a.82.82 0 1 0 0 1.64h3.336a.82.82 0 1 0 0-1.64m23.024 0h-3.336a.82.82 0 1 0 0 1.64h3.336a.82.82 0 1 0 0-1.64m-3.32-9.04a.82.82 0 0 0-1.16 0l-2.32 2.32a.82.82 0 1 0 1.16 1.16l2.32-2.32a.82.82 0 0 0 0-1.16M20 6a.82.82 0 0 0-.82.82v3.336a.82.82 0 1 0 1.64 0V6.82A.82.82 0 0 0 20 6m4.594 8.209c-1.789-1.412-4.102-1.92-6.366-1.379-2.625.607-4.741 2.691-5.381 5.3-.64 2.625.098 5.282 1.985 7.136.673.673 1.066 1.728 1.066 2.811v.18c0 .46.361.821.82.821h6.563c.46 0 .82-.36.82-.82v-.18c0-1.067.41-2.155 1.133-2.86A7.4 7.4 0 0 0 27.383 20a7.37 7.37 0 0 0-2.79-5.791M20 17.539c-1.238 0-2.139.82-2.374 1.771a.82.82 0 0 1-1.593-.394c.406-1.64 1.947-3.018 3.967-3.018a.82.82 0 1 1 0 1.641m-3.281 13.18v.82A2.464 2.464 0 0 0 19.179 34h1.641a2.464 2.464 0 0 0 2.461-2.46v-.821z"/></g></g><defs><clipPath id="a"><path fill="#fff" d="M0 0h40v40H0z"/></clipPath><clipPath id="b"><path fill="#fff" d="M6 6h28v28H6z"/></clipPath></defs></svg>
